src/assets/img/sun.svg

<svg height="200" viewBox="0 0 200 200" width="200" xmlns="http://www.w3.org/2000/svg" xmlns:xlink="http://www.w3.org/1999/xlink"><linearGradient id="a" x1="50%" x2="50%" y1="0%" y2="100%"><stop offset="0" stop-color="#fffcc9"/><stop offset="1" stop-color="#fff799"/></linearGradient><path d="m69.5 102c-17.9492544 0-32.5-14.5507456-32.5-32.5s14.5507456-32.5 32.5-32.5 32.5 14.5507456 32.5 32.5-14.5507456 32.5-32.5 32.5zm-64.3955703-29c-2.76142375 0-5-2.2385763-5-5s2.23857625-5 5-5h21.1366348c2.7614237 0 5 2.2385763 5 5s-2.2385763 5-5 5zm107.7589353 0c-2.761424 0-5-2.2385763-5-5s2.238576-5 5-5h21.136635c2.761424 0 5 2.2385763 5 5s-2.238576 5-5 5zm-47.863365-67.8955703c0-2.76142375 2.2385763-5 5-5s5 2.23857625 5 5v21.1366348c0 2.7614237-2.2385763 5-5 5s-5-2.2385763-5-5zm0 107.7589353c0-2.761424 2.2385763-5 5-5s5 2.238576 5 5v21.136635c0 2.761424-2.2385763 5-5 5s-5-2.238576-5-5zm-44.216525-85.7159289c-1.9526214-1.9526215-1.9526214-5.1184464 0-7.0710678 1.9526215-1.9526215 5.1184464-1.9526215 7.0710679 0l14.9458578 14.9458578c1.9526214 1.9526214 1.9526214 5.1184463 0 7.0710678-1.9526215 1.9526214-5.1184464 1.9526214-7.0710679 0zm76.1970741 76.1970739c-1.9526215-1.952621-1.9526215-5.1184462 0-7.0710677 1.9526214-1.9526215 5.1184459-1.9526215 7.0710679 0l14.945858 14.9458577c1.952621 1.952622 1.952621 5.118446 0 7.071068-1.952622 1.952621-5.118447 1.952621-7.071068 0zm13.8720149-82.561035c1.952621-1.9526214 5.118446-1.9526214 7.071068 0 1.952621 1.9526215 1.952621 5.1184464 0 7.0710679l-14.945858 14.9458578c-1.952622 1.9526214-5.1184464 1.9526214-7.0710679 0-1.9526214-1.9526215-1.9526214-5.1184464 0-7.0710679zm-76.1970741 76.1970741c1.9526215-1.9526215 5.1184463-1.9526215 7.0710678 0 1.9526215 1.9526214 1.9526215 5.1184459 0 7.0710679l-14.9458578 14.945858c-1.9526214 1.952621-5.1184463 1.952621-7.0710678 0-1.9526215-1.952622-1.9526215-5.118447 0-7.071068z" fill="url(#a)" fill-rule="evenodd" transform="translate(29 30)"/></svg>

<?xml version="1.0" encoding="UTF-8"?>
<svg width="200px" height="200px" viewBox="0 0 200 200" version="1.1" xmlns="http://www.w3.org/2000/svg" xmlns:xlink="http://www.w3.org/1999/xlink">
    <!-- Generator: Sketch 52.1 (67048) - http://www.bohemiancoding.com/sketch -->
    <title>sun</title>
    <desc>Created with Sketch.</desc>
    <defs>
        <linearGradient x1="50%" y1="0%" x2="50%" y2="100%" id="linearGradient-1">
            <stop stop-color="#FFFCC9" offset="0%"></stop>
            <stop stop-color="#FFF799" offset="100%"></stop>
        </linearGradient>
    </defs>
    <g id="sun" stroke="none" stroke-width="1" fill="none" fill-rule="evenodd">
        <g id="Group-2" transform="translate(29.000000, 30.000000)" fill="url(#linearGradient-1)">
            <path d="M69.5,102 C51.5507456,102 37,87.4492544 37,69.5 C37,51.5507456 51.5507456,37 69.5,37 C87.4492544,37 102,51.5507456 102,69.5 C102,87.4492544 87.4492544,102 69.5,102 Z M5.1044297,73 C2.34300595,73 0.104429697,70.7614237 0.104429697,68 C0.104429697,65.2385763 2.34300595,63 5.1044297,63 L26.2410645,63 C29.0024882,63 31.2410645,65.2385763 31.2410645,68 C31.2410645,70.7614237 29.0024882,73 26.2410645,73 L5.1044297,73 Z M112.863365,73 C110.101941,73 107.863365,70.7614237 107.863365,68 C107.863365,65.2385763 110.101941,63 112.863365,63 L134,63 C136.761424,63 139,65.2385763 139,68 C139,70.7614237 136.761424,73 134,73 L112.863365,73 Z M65,5.1044297 C65,2.34300595 67.2385763,0.104429697 70,0.104429697 C72.7614237,0.104429697 75,2.34300595 75,5.1044297 L75,26.2410645 C75,29.0024882 72.7614237,31.2410645 70,31.2410645 C67.2385763,31.2410645 65,29.0024882 65,26.2410645 L65,5.1044297 Z M65,112.863365 C65,110.101941 67.2385763,107.863365 70,107.863365 C72.7614237,107.863365 75,110.101941 75,112.863365 L75,134 C75,136.761424 72.7614237,139 70,139 C67.2385763,139 65,136.761424 65,134 L65,112.863365 Z M20.783475,27.1474361 C18.8308536,25.1948146 18.8308536,22.0289897 20.783475,20.0763683 C22.7360965,18.1237468 25.9019214,18.1237468 27.8545429,20.0763683 L42.8004007,35.0222261 C44.7530221,36.9748475 44.7530221,40.1406724 42.8004007,42.0932939 C40.8477792,44.0459153 37.6819543,44.0459153 35.7293328,42.0932939 L20.783475,27.1474361 Z M96.9805491,103.34451 C95.0279276,101.391889 95.0279276,98.2260638 96.9805491,96.2734423 C98.9331705,94.3208208 102.098995,94.3208208 104.051617,96.2734423 L118.997475,111.2193 C120.950096,113.171922 120.950096,116.337746 118.997475,118.290368 C117.044853,120.242989 113.879028,120.242989 111.926407,118.290368 L96.9805491,103.34451 Z M110.852564,20.783475 C112.805185,18.8308536 115.97101,18.8308536 117.923632,20.783475 C119.876253,22.7360965 119.876253,25.9019214 117.923632,27.8545429 L102.977774,42.8004007 C101.025152,44.7530221 97.8593276,44.7530221 95.9067061,42.8004007 C93.9540847,40.8477792 93.9540847,37.6819543 95.9067061,35.7293328 L110.852564,20.783475 Z M34.6554899,96.9805491 C36.6081114,95.0279276 39.7739362,95.0279276 41.7265577,96.9805491 C43.6791792,98.9331705 43.6791792,102.098995 41.7265577,104.051617 L26.7806999,118.997475 C24.8280785,120.950096 21.6622536,120.950096 19.7096321,118.997475 C17.7570106,117.044853 17.7570106,113.879028 19.7096321,111.926407 L34.6554899,96.9805491 Z" id="Combined-Shape"></path>
        </g>
    </g>
</svg>
